svgs/solid/face-pouting.svg

<svg xmlns="http://www.w3.org/2000/svg" viewBox="0 0 512 512"><!--! Font Awesome Pro 6.2.0 by @fontawesome - https://fontawesome.com License - https://fontawesome.com/license (Commercial License) Copyright 2022 Fonticons, Inc. --><path d="M512 256c0 141.4-114.6 256-256 256S0 397.4 0 256S114.6 0 256 0S512 114.6 512 256zM161.3 382.1c-5.4 12.3 8.7 21.6 21.1 16.4c22.4-9.5 47.4-14.8 73.7-14.8s51.3 5.3 73.7 14.8c12.4 5.2 26.5-4.1 21.1-16.4c-16-36.6-52.4-62.1-94.8-62.1s-78.8 25.6-94.8 62.1zM176.4 272c17.7 0 32-14.3 32-32c0-1.5-.1-3-.3-4.4l10.9 3.6c8.4 2.8 17.4-1.7 20.2-10.1s-1.7-17.4-10.1-20.2l-96-32c-8.4-2.8-17.4 1.7-20.2 10.1s1.7 17.4 10.1 20.2l30.7 10.2c-5.8 5.8-9.3 13.8-9.3 22.6c0 17.7 14.3 32 32 32zm192-32c0-8.9-3.6-17-9.5-22.8l30.2-10.1c8.4-2.8 12.9-11.9 10.1-20.2s-11.9-12.9-20.2-10.1l-96 32c-8.4 2.8-12.9 11.9-10.1 20.2s11.9 12.9 20.2 10.1l11.7-3.9c-.2 1.5-.3 3.1-.3 4.7c0 17.7 14.3 32 32 32s32-14.3 32-32z"/></svg>

<svg xmlns="http://www.w3.org/2000/svg" viewBox="0 0 512 512"><!--! Font Awesome Pro 6.1.2 by @fontawesome - https://fontawesome.com License - https://fontawesome.com/license (Commercial License) Copyright 2022 Fonticons, Inc. --><path d="M512 256C512 397.4 397.4 512 256 512C114.6 512 0 397.4 0 256C0 114.6 114.6 0 256 0C397.4 0 512 114.6 512 256zM161.3 382.1C155.9 394.4 170 403.7 182.4 398.5C204.8 389 229.7 383.7 256.1 383.7C282.4 383.7 307.3 389 329.7 398.5C342.1 403.7 356.2 394.4 350.8 382.1C334.9 345.5 298.4 319.1 256.1 319.1C213.7 319.1 177.2 345.5 161.3 382.1V382.1zM176.4 272C194 272 208.4 257.7 208.4 240C208.4 238.5 208.3 237 208.1 235.6L218.9 239.2C227.3 241.1 236.4 237.4 239.2 229.1C241.1 220.7 237.4 211.6 229.1 208.8L133.1 176.8C124.7 174 115.6 178.6 112.8 186.9C110 195.3 114.6 204.4 122.9 207.2L153.7 217.4C147.9 223.2 144.4 231.2 144.4 240C144.4 257.7 158.7 272 176.4 272zM358.9 217.2L389.1 207.2C397.4 204.4 401.1 195.3 399.2 186.9C396.4 178.6 387.3 174 378.9 176.8L282.9 208.8C274.6 211.6 270 220.7 272.8 229.1C275.6 237.4 284.7 241.1 293.1 239.2L304.7 235.3C304.5 236.8 304.4 238.4 304.4 240C304.4 257.7 318.7 272 336.4 272C354 272 368.4 257.7 368.4 240C368.4 231.1 364.7 223 358.9 217.2H358.9z"/></svg>
